Adwaita++/apps/scalable/astah_uml.svg

<svg height="128" width="128" xmlns="http://www.w3.org/2000/svg" xmlns:xlink="http://www.w3.org/1999/xlink">
  <linearGradient id="e" gradientTransform="matrix(1.0015 0 0 .99993 72.09 56.015)" gradientUnits="userSpaceOnUse" x1="43.844" x2="-60" y1="234" y2="234">
    <stop offset="0" stop-color="#d5d3cf"/>
    <stop offset=".038" stop-color="#e3e2df"/>
    <stop offset=".077" stop-color="#c0bfbc"/>
    <stop offset=".923" stop-color="#c0bfbc"/>
    <stop offset=".962" stop-color="#e3e2df"/>
    <stop offset="1" stop-color="#d5d3cf"/>
  </linearGradient>
  <g transform="translate(0 -172)">
    <rect fill="url(#e)" height="48" rx="8" width="104" x="12" y="240"/>
    <g>
      <rect fill="url(#e)" height="48" rx="8" width="104" x="12" y="240"/>
      <path d="m20 10c-4.432 0-8 3.568-8 8v42 42c0 4.432 3.568 8 8 8h44 44c4.432 0 8-3.568 8-8v-42-42c0-4.432-3.568-8-8-8z" fill="#2d7bf7" transform="translate(0 172)"/>
      <g fill="#fff">
        <path d="m812.20261 1309.7929c-27.70079 0-55.72369 7.4083-74.72772 20.9366l18.03773 35.1092c12.56198-9.9852 31.56602-16.1051 49.92584-16.1051 27.05659 0 42.19199 14.4169 42.19199 35.9977l-50.00981-.2354c-52.82417-.2486-74.40225 26.624-74.40225 57.2238 0 29.9555 22.04572 51.6578 62.6306 51.6578 25.44607 0 52.4405-7.5298 61.78146-23.3128l.003 21.3432 53.33034-.01-.006-104.013c-.003-52.5026-35.93005-78.5921-88.75482-78.5921zm-11.67969 151.6087c-17.71562 0-28.34499-8.3747-28.34499-20.9367 0-11.5956 7.40547-23.1197 30.91845-22.9689l44.53407.2354.003 16.1495c.003 16.8142-30.36157 27.5207-47.11089 27.5207z" transform="matrix(.27084159 0 0 .27084159 -493.24182 -174.54991)"/>
        <path d="m-305.37305 155.49023-2.35937 7.64454s9.5961 3.00764 15.25 4.04687c6.04545 1.1112 17.50195 1.16602 17.50195 1.16602l.11719-7.99805s-12.1343-.29461-16.17383-1.03711c-4.43108-.81447-14.33594-3.82227-14.33594-3.82227z"/>
        <path d="m-261.4707 128.67773s-.77076 2.83432-1.54102 6.19532c-.77026 3.36099-1.60389 6.95068-1.58984 9.98047.0131 2.83185.72276 5.93501 1.37695 8.65039.65419 2.71537 1.30664 4.90429 1.30664 4.90429l7.66797-2.2832s-.59719-2.00534-1.19727-4.49609c-.60007-2.49075-1.1487-5.60474-1.15429-6.8125-.005-1.00984.6573-4.97348 1.38672-8.15625.72941-3.18277 1.46289-5.88282 1.46289-5.88282z"/>
        <path d="m-195.32227 150.44922s-5.05055.43343-10.40625.94726c-2.67784.25692-5.43095.53373-7.6914.78907-2.26045.25533-3.57615.33944-5.09375.74414-1.02848.27426-2.49521.78183-4.67383 1.52539s-4.84545 1.6714-7.4375 2.57812c-5.1841 1.81345-12.58625 4.80386-12.58625 4.80386l6.13593 5.49524s3.92811-.9423 9.09094-2.74832c2.58142-.903 5.23679-1.82487 7.38086-2.55664 2.14408-.73176 4.00057-1.32671 4.15235-1.36718-.33735.09 1.74941-.27912 3.92969-.52539 2.18028-.24628 4.9056-.51891 7.55859-.77344 5.30598-.50906 10.32617-.94141 10.32617-.94141z"/>
        <path d="m-241.72266 175.70117-7.07089 6.87945s18.99303 12.64392 25.99277 19.24165c3.26796 3.08028 8.78884 10.22524 13.16797 16.36523 4.37912 6.13999 7.79101 11.36914 7.79101 11.36914l8.375-5.46484s-3.51159-5.38486-8.02343-11.71094c-4.51185-6.32608-9.84948-13.49853-14.45118-17.83594-8.73958-8.23765-25.78125-18.84375-25.78125-18.84375z"/>
        <path d="m44.060547 54.484375c-7.502526 0-15.093153 2.007855-20.240235 5.671875l4.884766 9.507812c3.402307-2.704398 8.550835-4.361328 13.523438-4.361328 7.32805 0 11.427734 3.90502 11.427734 9.75l-13.544922-.064453c-14.306982-.0673-20.152344 7.210357-20.152344 15.498047 0 8.1132 5.970818 13.992192 16.962891 13.992192 6.891854 0 14.204454-2.03977 16.734375-6.314458v5.781248l14.443359-.0039v-28.169926c-.000837-14.21955-9.731918-21.287109-24.039062-21.287109zm-2.466797 29.171875 12.0625.0625v4.375c.000813 4.55398-8.223354 7.453125-12.759766 7.453125-4.798126 0-7.677734-2.267602-7.677734-5.669922 0-3.14057 2.006708-6.261543 8.375-6.220703z" transform="translate(0 172)"/>
        <path d="m116 33.318359v-8.033203c-1.79763.161904-2.1376.182922-4.4043.400391-2.67784.25692-5.43095.533722-7.6914.789062-2.26045.25533-3.57616.339441-5.093753.744141-1.02848.27426-2.495208.781831-4.673828 1.525391s-4.84545 1.671405-7.4375 2.578125c-5.1841 1.81345-12.585938 4.802734-12.585938 4.802734l6.134766 5.496094s3.928967-.942027 9.091797-2.748047c2.58142-.903 5.236789-1.824871 7.380859-2.556641 2.14408-.73176 4.000567-1.326717 4.152347-1.367187-.33735.09 1.7494-.279121 3.92968-.525391 2.18028-.24628 4.90561-.518907 7.5586-.773437 1.8697-.179381 2.04709-.187262 3.63867-.332032z" transform="translate(0 172)"/>
        <path d="m115.65039 103.73633c.13094-.57607.34961-1.1195.34961-1.73633v-15.087891c-.09244-.130003-.07269-.111339-.16602-.242187-4.51185-6.32608-9.84947-13.498528-14.45117-17.835938-8.739572-8.23765-25.781247-18.84375-25.781248-18.84375l-7.072265 6.878907s18.994399 12.644457 25.994141 19.242187c3.26796 3.08028 8.788842 10.225245 13.167972 16.365234 4.37912 6.139991 7.79101 11.369138 7.79101 11.369138z" transform="translate(0 172)"/>
        <path d="m12 29.792969v8.345703c2.774022.842041 8.424871 2.520166 12.841797 3.332031 6.04545 1.1112 17.501953 1.166016 17.501953 1.166016l.117188-7.998047s-12.134299-.294609-16.173829-1.03711c-4.411493-.810869-14.200229-3.782221-14.287109-3.808593z" transform="translate(0 172)"/>
        <path d="m62.345703 10h-8.210937c-.711107 3.115305-1.425009 6.360885-1.41211 9.142578.0131 2.83185.722763 5.935011 1.376953 8.650391.65419 2.71537 1.306641 4.904297 1.306641 4.904297l7.667969-2.283204s-.597186-2.005343-1.197266-4.496093c-.60007-2.49075-1.148707-5.60474-1.154297-6.8125-.005-1.00984.657299-4.97348 1.386719-8.15625.117702-.513591.121513-.470085.236328-.949219z" transform="translate(0 172)"/>
      </g>
    </g>
  </g>
</svg>

<svg xmlns="http://www.w3.org/2000/svg" xmlns:xlink="http://www.w3.org/1999/xlink" width="128" height="128" version="1.0">
 <defs>
  <linearGradient id="a">
   <stop id="stop2" offset="0" stop-color="#68676b"/>
   <stop id="stop4" offset=".8" stop-color="#424048"/>
   <stop id="stop6" offset="1" stop-color="#241f31"/>
  </linearGradient>
  <radialGradient id="d" cx="279.422" cy="446.483" r="224" fx="279.422" fy="446.483" gradientTransform="matrix(1.34416 .0006 -.00062 1.38763 -121.22 -718.103)" gradientUnits="userSpaceOnUse" xlink:href="#a"/>
  <linearGradient id="e" x1="43.844" x2="-60" y1="234" y2="234" gradientTransform="matrix(1.0015 0 0 .99993 72.09 56.015)" gradientUnits="userSpaceOnUse" xlink:href="#b"/>
  <linearGradient id="b">
   <stop id="stop11" offset="0" stop-color="#d5d3cf"/>
   <stop id="stop13" offset=".038" stop-color="#e3e2df"/>
   <stop id="stop15" offset=".077" stop-color="#c0bfbc"/>
   <stop id="stop17" offset=".923" stop-color="#c0bfbc"/>
   <stop id="stop19" offset=".962" stop-color="#e3e2df"/>
   <stop id="stop21" offset="1" stop-color="#d5d3cf"/>
  </linearGradient>
 </defs>
 <g transform="translate(0 -172)">
  <rect fill="url(#e)" width="104" height="48" x="12" y="240" rx="8" ry="8"/>
 </g>
 <g transform="translate(0 -172)">
  <rect fill="url(#e)" width="104" height="48" x="12" y="240" rx="8" ry="8"/>
  <path style="fill:#2d7bf7" d="M 20 10 C 15.568 10 12 13.568 12 18 L 12 60 L 12 102 C 12 106.432 15.568 110 20 110 L 64 110 L 108 110 C 112.432 110 116 106.432 116 102 L 116 60 L 116 18 C 116 13.568 112.432 10 108 10 L 20 10 z" transform="translate(0,172)"/>
  <g style="font-weight:bold;font-size:322.10223389px;line-height:1.25;font-family:Montserrat;letter-spacing:0px;word-spacing:0px;fill:#ffffff;enable-background:new" transform="matrix(0.27084159,0,0,0.27084159,-493.24182,-174.54991)">
   <path style="fill:#ffffff" d="m 812.20261,1309.7929 c -27.70079,0 -55.72369,7.4083 -74.72772,20.9366 l 18.03773,35.1092 c 12.56198,-9.9852 31.56602,-16.1051 49.92584,-16.1051 27.05659,0 42.19199,14.4169 42.19199,35.9977 l -50.00981,-0.2354 c -52.82417,-0.2486 -74.40225,26.624 -74.40225,57.2238 0,29.9555 22.04572,51.6578 62.6306,51.6578 25.44607,0 52.4405,-7.5298 61.78146,-23.3128 l 0.003,21.3432 53.33034,-0.01 -0.006,-104.013 c -0.003,-52.5026 -35.93005,-78.5921 -88.75482,-78.5921 z m -11.67969,151.6087 c -17.71562,0 -28.34499,-8.3747 -28.34499,-20.9367 0,-11.5956 7.40547,-23.1197 30.91845,-22.9689 l 44.53407,0.2354 0.003,16.1495 c 0.003,16.8142 -30.36157,27.5207 -47.11089,27.5207 z"/>
  </g>
  <path style="fill:#ffffff" d="m -305.37305,155.49023 -2.35937,7.64454 c 0,0 9.5961,3.00764 15.25,4.04687 6.04545,1.1112 17.50195,1.16602 17.50195,1.16602 l 0.11719,-7.99805 c 0,0 -12.1343,-0.29461 -16.17383,-1.03711 -4.43108,-0.81447 -14.33594,-3.82227 -14.33594,-3.82227 z"/>
  <path style="fill:#ffffff" d="m -261.4707,128.67773 c 0,0 -0.77076,2.83432 -1.54102,6.19532 -0.77026,3.36099 -1.60389,6.95068 -1.58984,9.98047 0.0131,2.83185 0.72276,5.93501 1.37695,8.65039 0.65419,2.71537 1.30664,4.90429 1.30664,4.90429 l 7.66797,-2.2832 c 0,0 -0.59719,-2.00534 -1.19727,-4.49609 -0.60007,-2.49075 -1.1487,-5.60474 -1.15429,-6.8125 -0.005,-1.00984 0.6573,-4.97348 1.38672,-8.15625 0.72941,-3.18277 1.46289,-5.88282 1.46289,-5.88282 z"/>
  <path style="fill:#ffffff" d="m -195.32227,150.44922 c 0,0 -5.05055,0.43343 -10.40625,0.94726 -2.67784,0.25692 -5.43095,0.53373 -7.6914,0.78907 -2.26045,0.25533 -3.57615,0.33944 -5.09375,0.74414 -1.02848,0.27426 -2.49521,0.78183 -4.67383,1.52539 -2.17862,0.74356 -4.84545,1.6714 -7.4375,2.57812 -5.1841,1.81345 -12.58625,4.80386 -12.58625,4.80386 l 6.13593,5.49524 c 0,0 3.92811,-0.9423 9.09094,-2.74832 2.58142,-0.903 5.23679,-1.82487 7.38086,-2.55664 2.14408,-0.73176 4.00057,-1.32671 4.15235,-1.36718 -0.33735,0.09 1.74941,-0.27912 3.92969,-0.52539 2.18028,-0.24628 4.9056,-0.51891 7.55859,-0.77344 5.30598,-0.50906 10.32617,-0.94141 10.32617,-0.94141 z"/>
  <path style="fill:#ffffff" d="m -241.72266,175.70117 -7.07089,6.87945 c 0,0 18.99303,12.64392 25.99277,19.24165 3.26796,3.08028 8.78884,10.22524 13.16797,16.36523 4.37912,6.13999 7.79101,11.36914 7.79101,11.36914 l 8.375,-5.46484 c 0,0 -3.51159,-5.38486 -8.02343,-11.71094 -4.51185,-6.32608 -9.84948,-13.49853 -14.45118,-17.83594 -8.73958,-8.23765 -25.78125,-18.84375 -25.78125,-18.84375 z"/>
  <path style="fill:#ffffff" d="M 44.060547 54.484375 C 36.558021 54.484375 28.967394 56.49223 23.820312 60.15625 L 28.705078 69.664062 C 32.107385 66.959664 37.255913 65.302734 42.228516 65.302734 C 49.556566 65.302734 53.65625 69.207754 53.65625 75.052734 L 40.111328 74.988281 C 25.804346 74.920981 19.958984 82.198638 19.958984 90.486328 C 19.958984 98.599528 25.929802 104.47852 36.921875 104.47852 C 43.813729 104.47852 51.126329 102.43875 53.65625 98.164062 L 53.65625 103.94531 L 68.099609 103.94141 L 68.099609 75.771484 C 68.098772 61.551934 58.367691 54.484375 44.060547 54.484375 z M 41.59375 83.65625 L 53.65625 83.71875 L 53.65625 88.09375 C 53.657063 92.64773 45.432896 95.546875 40.896484 95.546875 C 36.098358 95.546875 33.21875 93.279273 33.21875 89.876953 C 33.21875 86.736383 35.225458 83.61541 41.59375 83.65625 z" transform="translate(0,172)"/>
  <path style="fill:#ffffff" d="M 116 33.318359 L 116 25.285156 C 114.20237 25.44706 113.8624 25.468078 111.5957 25.685547 C 108.91786 25.942467 106.16475 26.219269 103.9043 26.474609 C 101.64385 26.729939 100.32814 26.81405 98.810547 27.21875 C 97.782067 27.49301 96.315339 28.000581 94.136719 28.744141 C 91.958099 29.487701 89.291269 30.415546 86.699219 31.322266 C 81.515119 33.135716 74.113281 36.125 74.113281 36.125 L 80.248047 41.621094 C 80.248047 41.621094 84.177014 40.679067 89.339844 38.873047 C 91.921264 37.970047 94.576633 37.048176 96.720703 36.316406 C 98.864783 35.584646 100.72127 34.989689 100.87305 34.949219 C 100.5357 35.039219 102.62245 34.670098 104.80273 34.423828 C 106.98301 34.177548 109.70834 33.904921 112.36133 33.650391 C 114.23103 33.47101 114.40842 33.463129 116 33.318359 z" transform="translate(0,172)"/>
  <path style="fill:#ffffff" d="M 115.65039 103.73633 C 115.78133 103.16026 116 102.61683 116 102 L 116 86.912109 C 115.90756 86.782106 115.92731 86.80077 115.83398 86.669922 C 111.32213 80.343842 105.98451 73.171394 101.38281 68.833984 C 92.643238 60.596334 75.601563 49.990234 75.601562 49.990234 L 68.529297 56.869141 C 68.529297 56.869141 87.523696 69.513598 94.523438 76.111328 C 97.791398 79.191608 103.31228 86.336573 107.69141 92.476562 C 112.07053 98.616553 115.48242 103.8457 115.48242 103.8457 L 115.65039 103.73633 z" transform="translate(0,172)"/>
  <path style="fill:#ffffff" d="M 12 29.792969 L 12 38.138672 C 14.774022 38.980713 20.424871 40.658838 24.841797 41.470703 C 30.887247 42.581903 42.34375 42.636719 42.34375 42.636719 L 42.460938 34.638672 C 42.460938 34.638672 30.326639 34.344063 26.287109 33.601562 C 21.875616 32.790693 12.08688 29.819341 12 29.792969 z" transform="translate(0,172)"/>
  <path style="fill:#ffffff" d="M 62.345703 10 L 54.134766 10 C 53.423659 13.115305 52.709757 16.360885 52.722656 19.142578 C 52.735756 21.974428 53.445419 25.077589 54.099609 27.792969 C 54.753799 30.508339 55.40625 32.697266 55.40625 32.697266 L 63.074219 30.414062 C 63.074219 30.414062 62.477033 28.408719 61.876953 25.917969 C 61.276883 23.427219 60.728246 20.313229 60.722656 19.105469 C 60.717656 18.095629 61.379955 14.131989 62.109375 10.949219 C 62.227077 10.435628 62.230888 10.479134 62.345703 10 z" transform="translate(0,172)"/>
 </g>
</svg>
